X: 316
T: Wild Rose of the Mountain
C:J.M Mason
M:3/4
R:waltz
L:1/8
Z:Alf Warnock - alf0@rogers.com
Z: Harmony by Jerry G. Pizzarello
K:G
V:1
D2| "G"G4 D2| "D"A4 D2| "G"B3c d2| "C"e3f g2| "G"d3e d2| "Em"B4 G2| "A7"A6-|"D7"A4 D2|
"G"G4 D2| "D"A4 D2| "G"B3c d2| "C"e3f g2| "G"d3B G2| "D"A4 B2| "G"G6-|G4 :|
"G"dB3 d2| "Am"dc3 d2| "D7"f4 {gf}ef|"G"g4 d2| "C"e3f g2| "G"d4 B2| "Am"A6-|"D7"A4 d2|
"G"dB3 d2| "Am"dc3 d2| "D7"f4 {gf}ef| "G"g4 fe|"G"d3B G2| "D7"A4 B2| "G"G6-|G4 d2|
"G"dB3 d2| "Am"dc3 d2| "D7"f4 {gf}ef|"G"g4 fe|"G"d4 e2| "Bm"d4 B2| "Am"A6-|"D7"A4 GF|
"C"E3F G2| "D7"F3G A2| "rit...""G"B3c d2| "C"e3f Hg2| "a tempo""G"d3B G2| "D7"A4 B2| "G"G6-|G6|]
V:2
A,2|B,4 B,2|C4 C2|G,3A, B,2|C3D E2|B,3C B,2|G,4 B,2|A,2 B,2 ^C2|D2 C2 A,2|
B,4 B,2|C4 C2|G,3A, B,2|C3D E2|B,3D B,2|C4 D2|B,2 C2 A,2|B,4 :|
BG3 B2|BA3 B2|c4 {dc}Ac|B4 B2|c3d e2|B4 G2|E2 F2 G2|F4 B2|
BG3 B2|BA3 B2|c4 {dc}Ac|B6|B3G B,2|C4 D2|B,2 C2 A,2|B,4 B2|
BG3 B2|BA3 B2|c4 {dc}Ac|B6|B4 c2|B4 G2|E2 F2 G2|F4 ED|
C3D E2|D3E F2|"rit..."G3A B2|c3d He2|"a tempo"B3G B,2|C4 D2|B,2 C2 B,2|B,4|]
